T: Smultronstället
M: 4/4
L: 1/8
K: Amix
c3B ABca|g3a bagf|e3f edcA|BcdB f2ed|
cdcB ABca|g3a bagf|eABd cFGB|1EAAG A3B:|2EAA2 cega||
b3a bgeg|b3a bgaf|e3f edcA|BcdB f2eg|
b3a bgef|g3a bgaf|eABd cFGB|1EAA2 cega:|2EAAG A4||
